X:1
T:Why Will Ye Wander?
T:Stephen Collins Foster (1826-1864)
T:Why Will Ye Wander?
T:Public Domain
T:Public Domain
C:Stephen Collins Foster (1826-1864)
Z:Public Domain
%%score ( 1 2 ) ( 3 4 )
L:1/8
M:4/4
K:D
V:1 treble 
V:2 treble 
V:3 bass 
V:4 bass 
V:1
 [FA]3 [GB] [FA][DF][DE]D | [Dd]4 [DB]4 | [DA]2 [DF]2 [DF]2 D2 | [CE]6 z2 | %4
w: 1.~O ye thirst- y ones that|guish On|life’s drift- ing sand!|the|
w: 2.~From the riv- er gent- ly|ing Drink|a full sup- ply;|to|
w: 3.~O, the bliss of life e-|nal You|may al- so share!|to|
w: 4.~Lo, the sum- mer days are|ing, They|will soon be o’er;|the|
 [FA]3 [GB] [FA][DF][DE]D | [Dd]4 [DB]4 | [DB][DA][DF]D [DF]2 [CE]2 | D8 || %8
w: Sav- ior ben- ding o’er you,|ing out|His toil- worn hand. * *||
w: all its bless- èd wa- ters,|fore will|ye faint and die? Why will|wan-|
w: Je- sus, and be- liev- ing,|ter thro’|the gate of prayer. * *||
w: Spir- it still is plead- ing,|your dear-|est friend no more. * *||
"^Refrain" [Fd]4 [Ac]2 [GB]2 | [FA]4 [DF]4 | [GB]2 [FA]2 [DF]2 D2 | [CE]6 z2 | %12
w: ||||
w: Far a- way|from home?|To the lov- ing|of|
w: ||||
w: ||||
 [FA]3 [GB] [FA][DF][DE]D | [Dd]4 [DB]4 | [DB][DA][DF]D [DF]2 [CE]2 | D8 |] %16
w: ||||
w: mer- cy Who- so- ev- er|may come.|||
w: ||||
w: ||||
V:2
 x7 D | x8 | x6 D2 | x8 | x7 D | x8 | x3 D x4 | D8 || x8 | x8 | x6 D2 | x8 | x7 D | x8 | x3 D x4 | %15
w: lan-||’Tis||Reach-|||||||||||
w: flow-||Free||Where-||ye|der,|||arms||will|||
w: ter-||Come||En-|||||||||||
w: end-||While||Grieve|||||||||||
 D8 |] %16
w: |
w: |
w: |
w: |
V:3
 [D,D]3 [D,D] [D,D][D,A,][D,G,][D,F,] | [G,,B,]4 [G,,G,]4 | [D,F,]2 [D,A,]2 [D,A,]2 [B,,^G,]2 | %3
 [A,,A,]6 z2 | [D,A,]3 [D,D] [D,D][D,A,][D,G,][D,F,] | [G,,B,]4 [G,,G,]4 | %6
 [A,,F,][A,,F,][A,,A,][A,,F,] [A,,A,]2 [A,,G,]2 | [D,F,]8 || [D,A,]4 [D,A,]2 (B,C) | %9
 [D,D]4 [D,A,]4 | [D,D]2 [D,D]2 [D,A,]2 [F,A,]2 | A,6 z2 | [D,A,]3 [D,D] [D,D][D,A,][D,G,][D,F,] | %13
 [G,,B,]4 [G,,G,]4 | [A,,F,][A,,F,][A,,A,][A,,F,] [A,,A,]2 [A,,G,]2 | [D,F,]8 |] %16
V:4
 x8 | x8 | x8 | x8 | x8 | x8 | x8 | x8 || x6 D,2 | x8 | x8 | A,6 x2 | x8 | x8 | x8 | x8 |] %16

